X:1
T:Title
%%score ( 1 2 ) 3
L:1/8
Q:1/4=80
M:4/4
K:Ab
V:1 treble nm="Oboe, Soprano"
V:2 treble 
V:3 bass nm="Oboe, Bass"
V:1
 z4 z2 z [CE] | [CE]2 [DF][DF] [CE]2 [A,C][B,D] | [CE]2 [DF][DF] [CE]3 [CE] | %3
w: 1.~When~|lost~ in~ the~ dark ness~ of~|guilt~ and~ de spair,~ Sore~|
 [EA]2 [DG][DA] [EB]2 [EA][EB] | [Ec]2 [EB][=DA] [EB]3 [Ec] | [Ee]2 [Ee][Ec] [CA]2 [DF][CA] | %6
w: can kered~ in~ heart~ by~ the~|sin~ that~ was~ there,~ Lo,~|Je sus~ then~ found~ me,~ and~|
 AB [DA]>[DF] [CE]3 [CE] | EF[B,G][CA] [DB]2 [Ee][Fd] | [Ec]2 [DB][DB] [CA]3 [CE] | %9
w: gave~ * me~ re lease,~ He~|lift * ed~ me~ up~ to~ the~|plane~ of~ His~ peace.~ 2.~Led~|
 [CE]2 [DF][DF] [CE]2 [A,C][B,D] | [CE]2 [DF][DF] [CE]3 [CE] | [EA]2 [DG][DA] [EB]2 [EA][EB] | %12
w: lost~ in~ the~ dark ness~ of~|guilt~ and~ de spair,~ En|can kered~ in~ heart~ by~ the~|
 [Ec]2 [EB][=DA] [EB]3 [Ec] | [Ee]2 [Ee][Ec] [CA]2 [DF][CA] | AB [DA]>[DF] [CE]3 [CE] | %15
w: sin~ that~ was~ there,~ Lo,~|Je sus~ then~ found~ me,~ and~|gave~ * me~ re lease,~ Ex|
 EF[B,G][CA] [DB]2 [Ee][Fd] | [Ec]2 [DB][DB] [CA]4 |] %17
w: lift * ed~ me~ up~ to~ the~|plane~ of~ His~ peace.~|
V:2
 x8 | x8 | x8 | x8 | x8 | x8 | D2 z2 z4 | C2 z2 z4 | x8 | x8 | x8 | x8 | x8 | x8 | D2 z2 z4 | %15
 C2 z2 z4 | x8 |] %17
V:3
 z4 z2 z [A,,A,] | [A,,A,]2 [A,,A,][A,,A,] [A,,A,]2 [A,,E,][A,,E,] | %2
 [A,,A,]2 [A,,A,][A,,A,] [A,,A,]3 [A,,A,] | [C,A,]2 [B,,E,][A,,A,] [E,G,]2 [C,A,][E,G,] | %4
 A,2 [G,B,][F,B,] [E,G,]3 A, | [A,C]2 [A,C]A, [A,,A,]2 [A,,A,][A,,E,] | %6
 [D,F,]2 [D,F,]>[D,A,] [A,,A,]3 A, | A,2 A,A, [E,G,]2 [C,A,][D,A,] | %8
 [E,A,]2 [E,G,][E,G,] [A,,A,]3 [A,,A,] | [A,,A,]2 [A,,A,][A,,A,] [A,,A,]2 [A,,E,][A,,E,] | %10
 [A,,A,]2 [A,,A,][A,,A,] [A,,A,]3 [A,,A,] | [C,A,]2 [B,,E,][A,,A,] [E,G,]2 [C,A,][E,G,] | %12
 A,2 [G,B,][F,B,] [E,G,]3 A, | [A,C]2 [A,C]A, [A,,A,]2 [A,,A,][A,,E,] | %14
 [D,F,]2 [D,F,]>[D,A,] [A,,A,]3 A, | A,2 A,A, [E,G,]2 [C,A,][D,A,] | %16
 [E,A,]2 [E,G,][E,G,] [A,,A,]4 |] %17

